images/social-link/pinterest.svg

<svg width="36" height="36" viewBox="0 0 36 36" fill="none" xmlns="http://www.w3.org/2000/svg"><path fill-rule="evenodd" clip-rule="evenodd" d="M17.9132 1.2141c9.1877 0 16.6358 7.4482 16.6358 16.6361 0 9.1875-7.4481 16.6357-16.6358 16.6357-9.1878 0-16.6359-7.4482-16.6359-16.6357 0-9.1879 7.448-16.6361 16.6359-16.6361Z" fill="#293449"/><path d="M18.04 7C11.9485 7 7 11.9485 7 18.04c0 6.0915 4.9485 11.04 11.04 11.04 6.0916 0 11.04-4.9485 11.04-11.04C29.08 11.9485 24.1316 7 18.04 7Zm0 .96c5.5727 0 10.08 4.5073 10.08 10.08s-4.5073 10.08-10.08 10.08a10.1002 10.1002 0 0 1-2.9297-.4331c.413-.6904.9461-1.6772 1.1579-2.4919.1258-.4831.6431-2.4534.6431-2.4534.3362.6418 1.3185 1.185 2.3644 1.185 3.1122 0 5.3559-2.8623 5.3559-6.4191 0-3.41-2.7826-5.9606-6.3628-5.9606-4.4543 0-6.8185 2.9895-6.8185 6.2447 0 1.5138.8052 3.3983 2.0944 3.9984.1953.0909.3002.0515.345-.1378.0346-.1437.2087-.8441.2869-1.17.025-.104.0129-.1939-.0713-.2963-.4266-.5175-.7687-1.4682-.7687-2.355 0-2.2763 1.7233-4.4793 4.6594-4.4793 2.5351 0 4.3106 1.7282 4.3106 4.199 0 2.7916-1.4096 4.726-3.2438 4.726-1.0129 0-1.7714-.838-1.5281-1.8657.2918-1.2265.855-2.55.855-3.4359 0-.7923-.4251-1.4531-1.3059-1.4531-1.0356 0-1.8675 1.0706-1.8675 2.5059 0 .9133.3094 1.5319.3094 1.5319s-1.023 4.325-1.2104 5.13c-.1877.8044-.1374 1.8878-.06 2.6944C10.5622 25.8892 7.96 22.2733 7.96 18.04c0-5.5727 4.5073-10.08 10.08-10.08Z" fill="#FEFAFA"/></svg>

<svg width="36" height="36" viewBox="0 0 36 36" fill="none" xmlns="http://www.w3.org/2000/svg">
<g id="Sosial / icon / pin">
<path id="Shape 2 copy 4" fill-rule="evenodd" clip-rule="evenodd" d="M17.9132 1.2141C27.1009 1.2141 34.549 8.66232 34.549 17.8502C34.549 27.0377 27.1009 34.4859 17.9132 34.4859C8.72539 34.4859 1.27731 27.0377 1.27731 17.8502C1.27731 8.66232 8.72539 1.2141 17.9132 1.2141Z" fill="#293449"/>
<path id="Vector" d="M18.04 7C11.9485 7 7.00003 11.9485 7.00003 18.04C7.00003 24.1315 11.9485 29.08 18.04 29.08C24.1316 29.08 29.08 24.1315 29.08 18.04C29.08 11.9485 24.1316 7 18.04 7ZM18.04 7.96C23.6127 7.96 28.12 12.4673 28.12 18.04C28.12 23.6127 23.6127 28.12 18.04 28.12C17.0207 28.12 16.0373 27.9674 15.1103 27.6869C15.5233 26.9965 16.0564 26.0097 16.2682 25.195C16.394 24.7119 16.9113 22.7416 16.9113 22.7416C17.2475 23.3834 18.2298 23.9266 19.2757 23.9266C22.3879 23.9266 24.6316 21.0643 24.6316 17.5075C24.6316 14.0975 21.849 11.5469 18.2688 11.5469C13.8145 11.5469 11.4503 14.5364 11.4503 17.7916C11.4503 19.3054 12.2555 21.1899 13.5447 21.79C13.74 21.8809 13.8449 21.8415 13.8897 21.6522C13.9243 21.5085 14.0984 20.8081 14.1766 20.4822C14.2016 20.3782 14.1895 20.2883 14.1053 20.1859C13.6787 19.6684 13.3366 18.7177 13.3366 17.8309C13.3366 15.5546 15.0599 13.3516 17.996 13.3516C20.5311 13.3516 22.3066 15.0798 22.3066 17.5506C22.3066 20.3422 20.897 22.2766 19.0628 22.2766C18.0499 22.2766 17.2914 21.4386 17.5347 20.4109C17.8265 19.1844 18.3897 17.8609 18.3897 16.975C18.3897 16.1827 17.9646 15.5219 17.0838 15.5219C16.0482 15.5219 15.2163 16.5925 15.2163 18.0278C15.2163 18.9411 15.5257 19.5597 15.5257 19.5597C15.5257 19.5597 14.5027 23.8847 14.3153 24.6897C14.1276 25.4941 14.1779 26.5775 14.2553 27.3841C10.5622 25.8892 7.96003 22.2733 7.96003 18.04C7.96003 12.4673 12.4673 7.96 18.04 7.96Z" fill="#FEFAFA"/>
</g>
</svg>
